X:1
T:[ID 1-134]
T:[ID 1-134]
T:Bezeichnung standardisiert: Menuet [mit Trio] Menuet Con Trio 19. In dieser Quelle auch als: Menuetto
T:Urheber unbekannt Erstbeleg: vor 1767 (Datum in der schriftlichen Quelle) Datum in der hier transkribierten schriftlichen Quelle: 1775
C:Urheber unbekannt
C:Erstbeleg: vor 1767 (Datum in der schriftlichen Quelle)
C:Datum in der hier transkribierten schriftlichen Quelle: 1775
L:1/8
M:3/4
K:D
V:1 treble 
V:1
 D2 d2 d2 | Fdce d2 | D2 d2 d2 | (3def (3efg f2 | gFGA e/f/g | f2 (3EFG F2 | cd e2 d2 | c6 :: %8
 c4 c2 | B2 A^G A2 | A2 A2 ED | C6 |"^O)" F2 d2 f2 | egce d2 |"^O)" F2 d2 f2 | egce d2 | %16
 gFGAe/f/g | f2 A2 F2 | cedGFE | F6 :|[M:3/4]"^Trio" !fermata!F4 DF | E2 CE D2 | A4 FA | G2 EG F2 | %24
 F2 EDGF | G2 E2 F2 | cd e2 d2 | c6 :: c4 Bc | B2 ^GB A2 | f4 df | e2 ce d2 | G3 BBg | F3 Fdf | %34
 (3GFE A2 G2 | F6 :| %36

